X:1
T:House Carpenter
M:4/4
L:1/8
K:E
 E2| G2F-E F2 B2| E2E-C B,2 G2| B2B-A =d2c-A| B6 E2| G2F-E F2 BB| E2E-C B,2 EF|\
 G E2 A A2 F2| E6||
